X: 57
M: 6/8
L: 1/8
K: C
[| !p!G>A G E3 | !pp!G>A G E3 !mf!| d2 d/>B/  B3 | !p!c2 c/G/ G3 |
!pp!d2 d f> d B | (c3 e2) z | !p!c>G E G> F D | C3- C2 z |]


